packages/eui/src/components/icon/svgs/refresh.svg

<svg width="16" height="16" viewBox="0 0 16 16" fill="none" xmlns="http://www.w3.org/2000/svg">
<path fill-rule="evenodd" clip-rule="evenodd" d="M2 8C2 9.5363 2.58569 11.071 3.75736 12.2426C4.92903 13.4143 6.46369 14 8 14V15C6.20932 15 4.41699 14.3165 3.05025 12.9497C1.68351 11.583 0.999998 9.79068 1 7.99999C1 6.21049 1.68262 4.41935 3.04756 3.05295L3.05163 3.04876L3.07053 3.02959C3.07868 3.02139 3.0886 3.01147 3.1002 2.99999L1 2.99999L1 1.99999L5 1.99999L5 6H4L4 3.52549C3.93136 3.58766 3.87566 3.64053 3.83553 3.67951C3.81085 3.70348 3.79214 3.72211 3.78001 3.73432L3.76687 3.74764L3.76416 3.75042L3.75742 3.75743C2.58575 4.92909 2 6.46369 2 8ZM12.2426 3.75736C11.071 2.58569 9.53631 2 8 2V1C9.79068 1 11.583 1.68351 12.9497 3.05025C14.3165 4.41699 15 6.20931 15 7.99999C15 9.7895 14.3174 11.5806 12.9525 12.947L12.9484 12.9512L12.9295 12.9704C12.9213 12.9786 12.9114 12.9885 12.8998 13H15V14H11L11 10H12V12.4745C12.0686 12.4123 12.1243 12.3595 12.1645 12.3205C12.1892 12.2965 12.2079 12.2779 12.22 12.2657L12.2331 12.2524L12.2358 12.2496L12.2426 12.2426C13.4142 11.0709 14 9.5363 14 7.99999C14 6.46369 13.4143 4.92903 12.2426 3.75736Z" fill="#1D2A3E"/>
</svg>

<svg xmlns="http://www.w3.org/2000/svg" width="16" height="16" viewBox="0 0 16 16">
  <path fill-rule="evenodd" d="M2 8a5.98 5.98 0 0 0 1.757 4.243A5.98 5.98 0 0 0 8 14v1a6.98 6.98 0 0 1-4.95-2.05A6.98 6.98 0 0 1 1 8c0-1.79.683-3.58 2.048-4.947l.004-.004.019-.02L3.1 3H1V2h4v4H4V3.525a6.51 6.51 0 0 0-.22.21l-.013.013-.003.002-.007.007A5.98 5.98 0 0 0 2 8Zm10.243-4.243A5.98 5.98 0 0 0 8 2V1a6.98 6.98 0 0 1 4.95 2.05A6.98 6.98 0 0 1 15 8a6.98 6.98 0 0 1-2.047 4.947l-.005.004-.018.02-.03.029H15v1h-4v-4h1v2.475a6.744 6.744 0 0 0 .22-.21l.013-.013.003-.002.007-.007A5.98 5.98 0 0 0 14 8a5.98 5.98 0 0 0-1.757-4.243Z" clip-rule="evenodd"/>
</svg>
